!!!COM: Chopin, Frederic
!!!CDT: 1810///-1849///
!!!OTL: Waltz in D-flat Major, Op. 64, No. 1
!!!OPS: Op. 64
!!!ONM: No. 1
!!!ONB: Minute Waltz
!!!ODT: 1847///
!!!PDT: 1847///
!!!ODE: Countess Delfina Potocka
**kern	**kern	**dynam
*staff2	*staff1	*staff1/2
*Ipiano	*Ipiano	*Ipiano
*>[A,B,B1,B,C]	*>[A,B,B1,B,C]	*>[A,B,B1,B,C]
*>norep[A,B,C]	*>norep[A,B,C]	*>norep[A,B,C]
*>A	*>A	*>A
*clefF4	*clefG2	*
*k[b-e-a-d-g-]	*k[b-e-a-d-g-]	*k[b-e-a-d-g-]
*M3/4	*M3/4	*M3/4
*MM240	*MM240	*MM240
=1-	=1-	=1-
2.r	(4a-^/	p
.	8gn/L	.
.	8a-/	.
.	8cc/	.
.	8b-/J	.
=2	=2	=2
2.r	8gn/L	.
.	8a-/	.
.	8b-/	.
.	8a-/	.
.	8cc/	.
.	8b-/J	.
=3	=3	=3
2.r	8gn/L	.
.	8a-/	.
.	8cc/	.
.	8b-/	.
.	8gn/	.
.	8a-/J	.
=4	=4	=4
2.r	8cc/L	.
.	8b-/	.
.	8gn/	.
.	8a-/	.
.	8cc/	.
.	8b-/J	.
=5	=5	=5
4D-\	8gn/L	<
.	8a-/	.
4A-\ 4d-\ 4f\	8cc/	.
.	8b-/	.
4A-\ 4d-\ 4f\	8gn/	.
.	8a-/J	.
=6	=6	=6
4F\	8cc/L	.
.	8b-/	.
4A-\ 4d-\ 4f\	8gn/	.
.	8a-/	.
4A-\ 4d-\ 4f\	8cc/	.
.	8b-/J	.
=7	=7	=7
4D-\	8gn/L	.
.	8a-/	.
4A-\ 4d-\ 4f\	8cc/	.
.	8b-/	.
4A-\ 4d-\ 4f\	8gn/	.
.	8a-/J	.
=8	=8	=8
4F\	8b-\L	.
.	8cc\	.
4A-\ 4d-\ 4f\	8dd-\	.
.	8ee-\	.
4A-\ 4d-\ 4f\	8ff\	.
.	8gg-\J	.
=9	=9	=9
4AA-/	4.bb-\	>
4A-\ 4c\ 4g-\	.	.
.	8aa-\L	.
4A-\ 4c\ 4g-\	8gg-\	.
.	8ff\J	.
=10	=10	=10
4E-\	8ff\L	.
.	8ee-\	.
4A-\ 4c\ 4g-\	8ee-\	.
.	8ddn\J	.
4A-\ 4c\ 4g-\	4ee-\)	.
=11	=11	=11
4AA-/	4.bb-\	.
4c\ 4g-\	.	.
.	8aa-\L	.
4c\ 4g-\	8gg-\	.
.	8ff\J	.
=12	=12	=12
4A-\	8ff\L	>
.	8ee-\	.
4c\ 4g-\	8ddn\	.
.	8ee-\	.
4c\ 4g-\	8ff\	.
.	8b-\J	.
=13	=13	=13
4D-\	8gn/L	.
.	8a-/	.
4A-\ 4d-\ 4f\	8cc/	.
.	8b-/	.
4A-\ 4d-\ 4f\	8gn/	.
.	8a-/J	.
=14	=14	=14
4F\	8cc/L	.
.	8b-/	.
4A-\ 4d-\ 4f\	8gn/	.
.	8a-/	.
4A-\ 4d-\ 4f\	8cc/	.
.	8b-/J	.
=15	=15	=15
4D-\	8gn/L	<
.	8a-/	.
4A-\ 4d-\ 4f\	8cc/	.
.	8b-/	.
4A-\ 4d-\ 4f\	8gn/	.
.	8a-/J	.
=16	=16	=16
4F\	8b-\L	<
.	8cc\	.
4A-\ 4d-\ 4f\	8dd-\	.
.	8ee-\	.
4A-\ 4d-\ 4f\	8ff\	.
.	8gg-\J	.
=17	=17	=17
4AA-/	4.bb-\	.
4A-\ 4c\ 4g-\	.	.
.	8aa-\L	.
4A-\ 4c\ 4g-\	8gg-\	.
.	8ff\J	.
=18	=18	=18
4E-\	8ff\L	>
.	8ee-\	.
4A-\ 4c\ 4g-\	8ee-\	.
.	8ddn\J	.
4A-\ 4c\ 4g-\	4ee-\	.
=19	=19	=19
4AA-/	4.bb-\	.
4A-\ 4c\ 4g-\	.	.
.	8aa-\L	.
4A-\ 4c\ 4g-\	8gg-\	.
.	8ff\J	.
=20	=20	=20
4A-\	8ee-\L	.
.	8ff\	.
4c\ 4g-\	8ee-\	.
.	8ddn\	.
4AA-/	8ee-\	.
.	8een\J	.
=21!|:	=21!|:	=21!|:
*>B	*>B	*>B
4AAn/	12ff\L	.
.	12gg-\	.
.	12ff\J	.
4F\ 4c\ 4e-\	8een\L	.
.	8ff\	.
4F\ 4c\ 4e-\	8aa-\	.
.	8gg-\J	.
=22	=22	=22
4BB-/	8ff\L	.
.	8gg-\	.
4F\ 4d-\	8ff\	.
.	8een\	.
4F\ 4d-\	8ff\	.
.	8bb-\J	.
=23	=23	=23
4C/	12aa-\L	.
.	12bb-\	.
.	12aa-\J	.
4A-\ 4e-\ 4g-\	8ggn\L	.
.	8aa-\	.
4A-\ 4e-\ 4g-\	8ccc\	.
.	8bb-\J	.
=24	=24	=24
4D-\	8aa-\L	.
.	8bb-\	.
4A-\ 4f\	8aa-\	.
.	8ggn\	.
4r	8aa-\	.
.	8ddd-\J	>
=25	=25	=25
4G-\	8ccc\L	.
.	8bb-\	.
4B-\ 4e-\	8aa-\	.
.	8gg-\	.
4r	8ff\	.
.	8ee-\J	.
=26	=26	=26
4AA-/	8dd-/L	.
.	8cc/	.
4F\ 4A-\ 4d-\	8b-/	.
.	8a-/	.
4r	8g-/	.
.	8f/J	.
=27	=27	=27
4AA-/	8e-/L	.
.	8d-/	.
4G-\ 4A-\	8c/	.
.	8e-/	.
4G-\ 4A-\ 4c\	8b-/	.
.	8a-/J	.
=28	=28	=28
4D-\	8gn\L	.
.	8a-\	.
4A-\ 4d-\ 4f\	8b-\	.
.	8cc\	.
4r	8dd-\	.
.	8ee-\J	.
=29	=29	=29
*	*^	*
(2.An\	12ff/L	4r	.
.	12gg-/	.	.
.	12ff/J	.	.
.	8een/L	4e-\ 4f\	.
.	8ff/	.	.
.	8aa-/	4e-\ 4f\	.
.	8gg-/J	.	.
=30	=30	=30	=30
2.B-\	8ff/L	4r	.
.	8gg-/	.	.
.	8ff/	4d-\ 4f\	.
.	8een/	.	.
.	8ff/	4d-\ 4f\	.
.	8bb-/J	.	.
=31	=31	=31	=31
2.c\	12aa-/L	4r	.
.	12bb-/	.	.
.	12aa-/J	.	.
.	8ggn/L	4g-\ 4a-\	.
.	8aa-/	.	.
.	8ccc/	4g-\ 4a-\	.
.	8bb-/J	.	.
=32	=32	=32	=32
4d-\)	8aa-/L	4r	.
.	8bb-/	.	.
4r	8aa-/	4f\ 4a-\	.
.	8ggn/	.	.
4r	8aa-/	4r	.
.	8fff/J	.	.
=33	=33	=33	=33
4G-\	8eee-/L	4r	.
.	8ddd-/	.	.
4r	8ccc/	4d-\ 4e-\ 4b-\	.
.	8bb-/	.	.
4r	8aa-/	4r	.
.	8gg-/J	.	.
*	*v	*v	*
=34	=34	=34
4AA-/	8ff\L	.
.	8ee-\	.
4F\ 4A-\ 4d-\	8dd-\	.
.	8cc\	.
4r	8b-\	.
.	8a-\J	.
=35	=35	=35
4AA-/	8an/L	.
.	8cc/	.
4G-\ 4A-\	8b-/	.
.	8f/	.
4G-\ 4A-\	8g-/	.
.	8c/J	.
=36	=36	=36
*>B1	*>B1	*>B1
4D-\	4d-/	.
4A-\ 4f\	4r	.
4r	4ff\	.
=37:|!	=37:|!	=37:|!
*>C	*>C	*>C
4D-\	4d-/	.
4A-\ 4f\	4r	.
4r	([4a-/	.
=38	=38	=38
4AA-/	2a-/]	.
4G-\ 4A-\ 4c\	.	.
4G-\ 4A-\ 4c\	4e-/	.
=39	=39	=39
4G-\ 4A-\ 4c\	2a-/	.
4G-\ 4A-\ 4c\	.	.
4G-\ 4A-\ 4c\	4en/	.
=40	=40	=40
4D-\	2a-/	<
4A-\ 4d-\	.	.
4A-\ 4d-\	4f/	.
=41	=41	=41
4AA-/	2ff\)	.
4A-\ 4d-\ 4f\	.	.
4A-\ 4d-\ 4f\	[4ff\	.
=42	=42	=42
4E-\	2ff\]	.
4A-\ 4c\ 4g-\	.	.
4A-\ 4c\ 4g-\	4b-\	.
=43	=43	=43
4AA-/	2ff\	.
4A-\ 4e-\ 4g-\	.	.
4A-\ 4e-\ 4g-\	4cc\	.
=44	=44	=44
4D-\	2ee-\	.
4A-\ 4d-\ 4f\	.	.
4A-\ 4d-\ 4f\	4dd-\	.
=45	=45	=45
4F\	8.cc\	.
.	8.ee-\	.
4A-\ 4d-\ 4f\	.	.
.	8.dd-\	.
4A-\ 4d-\ 4f\	.	.
.	8.b-\	.
=46	=46	=46
4C/	2a-/	.
4G-\ 4A-\	.	.
4G-\ 4A-\	(4e-/	.
=47	=47	=47
4AA-/	2a-/)	.
4G-\ 4A-\	.	.
4G-\ 4A-\ 4c\	4en/	.
=48	=48	=48
4D-\	2a-/	.
4A-\ 4d-\	.	.
4A-\ 4d-\	4f/	.
=49	=49	=49
4BBn/	2.ff\	.
4A-\ 4d-\ 4f\	.	.
4A-\ 4d-\ 4f\	.	.
=50	=50	=50
4C/	4cc\	.
4A-\ 4c\ 4f\	4bn\	.
4A-\ 4c\ 4f\	4cc\	.
=51	=51	=51
4CC/	4aa-\	.
4Gn\ 4c\ 4en\	4b-\	.
4r	4ggn\	.
=52	=52	=52
4FF/	4an/	.
4r	4gg-\	.
4F\ 4c\	4a-/	.
=53	=53	=53
2.r	4ff\	.
.	4f/	.
.	4b-\	.
=54	=54	=54
4C/	2a-/	.
4G-\ 4A-\	.	.
4G-\ 4A-\	4e-/	.
=55	=55	=55
.	(aa-q/	.
4AA-/	2a-/)	.
4G-\ 4A-\ 4c\	.	.
4G-\ 4A-\ 4c\	4en/	.
=56	=56	=56
.	(aa-q/	.
4D-\	2a-/)	.
4A-\ 4d-\	.	.
4A-\ 4d-\	4f/	.
=57	=57	=57
.	aa-q/	.
4AA-/	2ff\	.
4A-\ 4d-\ 4f\	.	.
4A-\ 4d-\ 4f\	(4ff\	.
=58	=58	=58
.	aa-q/	.
4E-\	2ff\	.
4A-\ 4c\ 4g-\	.	.
4A-\ 4c\ 4g-\	4b-\	.
=59	=59	=59
.	aa-q/	.
4AA-/	2ff\	.
4A-\ 4e-\ 4g-\	.	.
4A-\ 4e-\ 4g-\	4cc\	.
=60	=60	=60
.	aa-q/	.
4D-\	4ee-\	.
4A-\ 4d-\ 4f\	4dd-\	.
4A-\ 4d-\ 4f\	4cc\	.
=61	=61	=61
.	aa-q/	.
4F\	4ee-\	.
4A-\ 4d-\ 4f\	4.dd-\	.
4A-\ 4d-\ 4f\	.	.
.	8b-\	.
=62	=62	=62
*^	*	*
.	.	aa-q/	.
4r	2.C\	&(2a-/&)	.
4G-/ 4A-/	.	.	.
4G-/ 4A-/	.	4e-/	.
*v	*v	*	*
=63	=63	=63
.	aa-q/	.
4AA-/	&(2a-/&)	.
4G-\ 4A-\ 4c\	.	.
4G-\ 4A-\ 4c\	4en/	.
=64	=64	=64
.	aa-q/	.
4C-/	&(2a-/&)	.
4F\ 4A-\ 4e-\	.	.
4F\ 4A-\ 4e-\	4f/	.
=65	=65	=65
4BB-/	2.ff\)	.
4F\ 4A-\ 4dn\	.	.
4F\ 4A-\ 4dn\	.	.
=66	=66	=66
4E-\	(2ff\	.
4d-\ 4gn\	.	.
4d-\ 4gn\	4b-\	.
=67	=67	=67
4r	2ee-\	.
4d-\ 4g-\	.	.
4d-\ 4g-\	4b--\	.
=68	=68	=68
*^	*	*
4r	(2A-\	4ee-\	.
4c/) 4g-/	.	4a-/	.
4r	4r	4ddn\	.
*v	*v	*	*
=69	=69	=69
2.r	4ff\	.
.	4ee-\	.
.	4aa-\)	.
=70	=70	=70
2.r	([2.a-/	.
=71	=71	=71
2.r	2.a-/_	.
=72	=72	=72
2.r	2.a-/]	.
=73	=73	=73
2.r	2.a-/)	.
=74	=74	=74
2.r	8gn/L	<
.	8a-/	.
.	8cc/	.
.	8b-/	.
.	8gn/	.
.	8a-/J	.
=75	=75	=75
2.r	8cc/L	.
.	8b-/	.
.	8gn/	.
.	8a-/	.
.	8cc/	.
.	8b-/J	.
=76	=76	=76
2.r	8gn/L	.
.	8a-/	.
.	8cc/	.
.	8b-/	.
.	8gn/	.
.	8a-/J	.
=77	=77	=77
2.r	8cc/L	.
.	8b-/	.
.	8gn/	.
.	8a-/	.
.	8cc/	.
.	8b-/J	.
=78	=78	=78
4DD-/	8gn/L	f
.	8a-/	.
4A-\ 4d-\ 4f\	8cc/	.
.	8b-/	.
4A-\ 4d-\ 4f\	8gn/	.
.	8a-/J	.
=79	=79	=79
4F\	8cc/L	.
.	8b-/	.
4A-\ 4d-\ 4f\	8gn/	.
.	8a-/	.
4A-\ 4d-\ 4f\	8cc/	.
.	8b-/J	.
=80	=80	=80
4D-\	8gn/L	.
.	8a-/	.
4A-\ 4d-\ 4f\	8cc/	.
.	8b-/	.
4A-\ 4d-\ 4f\	8gn/	.
.	8a-/J	.
=81	=81	=81
4F\	8b-\L	.
.	8cc\	.
4A-\ 4d-\ 4f\	8dd-\	.
.	8ee-\	.
4A-\ 4d-\ 4f\	8ff\	.
.	8gg-\J	.
=82	=82	=82
4AA-/	4.bb-\	.
4A-\ 4c\ 4g-\	.	.
.	8aa-\L	.
4A-\ 4c\ 4g-\	8gg-\	.
.	8ff\J	.
=83	=83	=83
4E-\	8ff\L	.
.	8ee-\	.
4A-\ 4c\ 4g-\	8ee-\	.
.	8ddn\J	.
4A-\ 4c\ 4g-\	4ee-\	.
=84	=84	=84
4AA-/	4.bb-\	.
4c\ 4g-\	.	.
.	8aa-\L	.
4c\ 4g-\	8gg-\	.
.	8ff\J	.
=85	=85	=85
4A-\	8ff\L	>
.	8ee-\	.
4c\ 4g-\	8ddn\	.
.	8ee-\	.
4c\ 4g-\	8ff\	.
.	8bn\J	.
=86	=86	=86
4D-\	8gn/L	p
.	8a-/	.
4A-\ 4d-\ 4f\	8cc/	.
.	8b-/	.
4A-\ 4d-\ 4f\	8gn/	.
.	8a-/J	.
=87	=87	=87
4F\	8cc/L	.
.	8b-/	.
4A-\ 4d-\ 4f\	8gn/	.
.	8a-/	.
4A-\ 4d-\ 4f\	8cc/	.
.	8b-/J	<
=88	=88	=88
4D-\	8gn/L	.
.	8a-/	.
4A-\ 4d-\ 4f\	8cc/	.
.	8b-/	.
4A-\ 4d-\ 4f\	8gn/	.
.	8a-/J	.
=89	=89	=89
4F\	8b-\L	.
.	8cc\	.
4A-\ 4d-\ 4f\	8dd-\	.
.	8ee-\	.
4A-\ 4d-\ 4f\	8ff\	.
.	8gg-\J	.
=90	=90	=90
4AA-/	4.bb-\	.
4A-\ 4c\ 4g-\	.	.
.	8aa-\L	.
4A-\ 4c\ 4g-\	8gg-\	.
.	8ff\J	.
=91	=91	=91
4E-\	8ff\L	>
.	8ee-\	.
4A-\ 4c\ 4g-\	8ee-\	.
.	8ddn\J	.
4A-\ 4c\ 4g-\	4ee-\	.
=92	=92	=92
4AA-/	4.bb-\	.
4A-\ 4c\ 4g-\	.	.
.	8aa-\L	.
4A-\ 4c\ 4g-\	8gg-\	.
.	8ff\J	.
=93	=93	=93
4A-\	8ee-\L	.
.	8ff\	.
4c\ 4g-\	8ee-\	.
.	8ddn\	.
4AA-/	8ee-\	.
.	8een\J	.
=94	=94	=94
4AAn/	12ff\L	.
.	12gg-\	.
.	12ff\J	.
4F\ 4c\ 4e-\	8een\L	.
.	8ff\	.
4F\ 4c\ 4e-\	8aa-\	.
.	8gg-\J	.
=95	=95	=95
4BB-/	8ff\L	.
.	8gg-\	.
4F\ 4d-\	8ff\	.
.	8een\	.
4F\ 4d-\	8ff\	.
.	8bb-\J	.
=96	=96	=96
4C/	12aa-\L	.
.	12bb-\	.
.	12aa-\J	.
4A-\ 4e-\ 4g-\	8ggn\L	.
.	8aa-\	.
4A-\ 4e-\ 4g-\	8ccc\	.
.	8bb-\J	.
=97	=97	=97
4D-\	8aa-\L	.
.	8bb-\	.
4A-\ 4f\	8aa-\	.
.	8ggn\	.
4r	8aa-\	.
.	8ddd-\J	.
=98	=98	=98
4G-\	8ccc\L	.
.	8bb-\	.
4B-\ 4e-\	8aa-\	.
.	8gg-\	.
4r	8ff\	.
.	8ee-\J	.
=99	=99	=99
4AA-/	8dd-/L	.
.	8cc/	.
4F\ 4A-\ 4d-\	8b-/	.
.	8a-/	.
4r	8g-/	.
.	8f/J	.
=100	=100	=100
4AA-/	8e-/L	.
.	8d-/	.
4G-\ 4A-\	8c/	.
.	8e-/	.
4G-\ 4A-\ 4c\	8b-/	.
.	8a-/J	.
=101	=101	=101
4D-\	8gn\L	.
.	8a-\	.
4A-\ 4d-\ 4f\	8b-\	.
.	8cc\	.
4r	8dd-\	.
.	8ee-\J	.
=102	=102	=102
*	*^	*
(2.An\	12ff/L	4r	.
.	12gg-/	.	.
.	12ff/J	.	.
.	8een/L	4e-\ 4f\	.
.	8ff/	.	.
.	8aa-/	4e-\ 4f\	.
.	8gg-/J	.	.
=103	=103	=103	=103
2.B-\	8ff/L	4r	.
.	8gg-/	.	.
.	8ff/	4d-\ 4f\	.
.	8een/	.	.
.	8ff/	4d-\ 4f\	.
.	8bb-/J	.	.
=104	=104	=104	=104
2.c\	12aa-/L	4r	.
.	12bb-/	.	.
.	12aa-/J	.	.
.	8ggn/L	4g-\ 4a-\	.
.	8aa-/	.	.
.	8ccc/	4g-\ 4a-\	.
.	8bb-/J	.	.
=105	=105	=105	=105
4d-\)	8aa-/L	4r	.
.	8bb-/	.	.
4r	8aa-/	4f\ 4a-\	.
.	8ggn/	.	.
4r	8aa-/	4r	.
.	8fff/J	.	.
=106	=106	=106	=106
4G-\	8eee-/L	4r	.
.	8ddd-/	.	.
4r	8ccc/	4d-\ 4e-\ 4b-\	.
.	8bb-/	.	.
4r	8aa-/	4r	.
.	8gg-/J	.	.
*	*v	*v	*
=107	=107	=107
4AA-/	8ff\L	.
.	8ee-\	.
4F\ 4A-\ 4d-\	8dd-\	.
.	8cc\	.
4r	8b-\	.
.	8a-\J	.
=108	=108	=108
4AA-/	8an/L	.
.	8cc/	.
4G-\ 4A-\	8b-/	.
.	8f/	.
4G-\ 4A-\	8g-/	.
.	8c/J	.
=109	=109	=109
4D-\	4d-/	.
4A-\ 4f\	4r	.
4r	[4ff^\	.
=110	=110	=110
4AAn/	12ff\L]	pp
.	12gg-\	.
.	12ff\J	<
4F\ 4c\ 4e-\	8een\L	.
.	8ff\	.
4F\ 4c\ 4e-\	8aa-\	.
.	8gg-\J	.
=111	=111	=111
4BB-/	8ff\L	.
.	8gg-\	.
4F\ 4d-\	8ff\	.
.	8een\	.
4F\ 4d-\	8ff\	.
.	8bb-\J	.
=112	=112	=112
4C/	12aa-\L	.
.	12bb-\	.
.	12aa-\J	.
4A-\ 4e-\ 4g-\	8ggn\L	.
.	8aa-\	.
4A-\ 4e-\ 4g-\	8ccc\	.
.	8bb-\J	.
=113	=113	=113
4D-\	8aa-\L	.
.	8bb-\	.
4A-\ 4f\	8aa-\	.
.	8ggn\	.
4r	8aa-\	.
.	8ddd-\J	.
=114	=114	=114
4G-\	8ccc\L	>
.	8bb-\	.
4B-\ 4e-\	8aa-\	.
.	8gg-\	.
4r	8ff\	.
.	8ee-\J	.
=115	=115	=115
4AA-/	8dd-/L	.
.	8cc/	.
4F\ 4A-\ 4d-\	8b-/	.
.	8a-/	.
4r	8g-/	.
.	8f/J	.
=116	=116	=116
4AA-/	8e-/L	.
.	8d-/	.
4G-\ 4A-\	8c/	<
.	8e-/	.
4G-\ 4A-\ 4c\	8b-/	.
.	8a-/J	.
=117	=117	=117
4D-\	8gn\L	.
.	8a-\	.
4A-\ 4d-\ 4f\	8b-\	.
.	8cc\	.
4r	8dd-\	.
.	8ee-\J	.
=118	=118	=118
*	*^	*
(2.An\	12ff/L	4r	.
.	12gg-/	.	.
.	12ff/J	.	.
.	8een/L	4e-\ 4f\	.
.	8ff/	.	.
.	8aa-/	4e-\ 4f\	.
.	8gg-/J	.	.
=119	=119	=119	=119
2.B-\	8ff/L	4r	.
.	8gg-/	.	.
.	8ff/	4d-\ 4f\	.
.	8een/	.	.
.	8ff/	4d-\ 4f\	.
.	8bb-/J	.	.
=120	=120	=120	=120
2.c\	12aa-/L	4r	.
.	12bb-/	.	.
.	12aa-/J	.	.
.	8ggn/L	4g-\ 4a-\	.
.	8aa-/	.	.
.	8ccc/	4g-\ 4a-\	.
.	8bb-/J	.	.
=121	=121	=121	=121
4d-\)	8aa-/L	4r	.
.	8bb-/	.	.
4r	8aa-/	4f\ 4a-\	.
.	8ggn/	.	.
4r	8aa-/J	4r	.
.	(8fff\	.	.
*	*v	*v	*
=122	=122	=122
4GG-/	16.eeee-\L	.
.	16.dddd-\	.
.	16.cccc\	.
*clefG2	*	*
4d-/ 4e-/ 4b-/	.	.
.	16.bbb-\	.
.	16.aaa-\	.
.	16.ggg-\	.
4r	.	.
.	16.fff\	.
.	16.eee-\J	.
=123	=123	=123
2.r	16.ddd-\L	.
.	16.ccc\	.
.	16.bb-\	.
.	16.aa-\	.
.	16.gg-\	.
.	16.ff\	.
.	16.ee-\	.
.	16.dd-\J	.
*clefF4	*	*
=124	=124	=124
4AA-/	16.cc\L	.
.	16.b-\	.
.	16.an\	<
4G-\ 4A-\	.	.
.	16.cc\	.
.	16.b-\	.
.	16.f\	.
4G-\ 4A-\	.	.
.	16.g-\	.
.	16.c\J	.
=125	=125	=125
4DD-/	2d-/)	f
4F\ 4A-\ 4f\	.	.
4r	4r	.
==	==	==
*-	*-	*-
!!!ENC: Craig Stuart Sapp
!!!END: 2004/12/23/
